assets/images/ico_search.svg

<svg width="18" height="18" viewBox="0 0 18 18" fill="none" xmlns="http://www.w3.org/2000/svg">
<path d="M17.7009 16.2963L13.2865 11.8765C15.506 8.98766 15.2841 4.81482 12.6206 2.17284C11.1656 0.716049 9.29128 0 7.39233 0C5.49338 0 3.6191 0.716049 2.16406 2.17284C-0.721353 5.06173 -0.721353 9.75309 2.16406 12.642C3.6191 14.0988 5.49338 14.8148 7.39233 14.8148C8.97068 14.8148 10.549 14.321 11.8561 13.3086L16.2952 17.7037C16.4925 17.9012 16.7391 18 17.0104 18C17.257 18 17.5283 17.9012 17.7256 17.7037C18.0955 17.3333 18.0955 16.6914 17.7009 16.2963ZM7.41699 12.8148C5.96196 12.8148 4.63023 12.2469 3.59444 11.2346C1.4982 9.1358 1.4982 5.7037 3.59444 3.58025C4.60556 2.5679 5.96196 2 7.41699 2C8.87203 2 10.2038 2.5679 11.2395 3.58025C12.2753 4.59259 12.8179 5.95062 12.8179 7.40741C12.8179 8.8642 12.2507 10.1975 11.2395 11.2346C10.2284 12.2716 8.84737 12.8148 7.41699 12.8148Z" fill="white"/>
</svg>

<svg width="18" height="18" fill="none" xmlns="http://www.w3.org/2000/svg"><path d="M17.7 16.296l-4.413-4.42a7.367 7.367 0 00-.666-9.703A7.332 7.332 0 007.392 0a7.332 7.332 0 00-5.228 2.173 7.413 7.413 0 000 10.469 7.332 7.332 0 005.228 2.173 7.268 7.268 0 004.464-1.506l4.44 4.395a.987.987 0 00.714.296c.247 0 .518-.099.716-.296.37-.37.37-1.013-.025-1.408zM7.418 12.815c-1.455 0-2.787-.568-3.823-1.58-2.096-2.1-2.096-5.531 0-7.655A5.368 5.368 0 017.417 2c1.455 0 2.787.568 3.822 1.58 1.036 1.013 1.579 2.37 1.579 3.827 0 1.457-.567 2.79-1.579 3.828-1.01 1.037-2.392 1.58-3.822 1.58z" fill="#fff"/></svg>
